X:1
T: Tambourine Dance
N:
C:
S:
A:
O:
R:
M:4/4
K:G
I:speed 200
%W: A1
% voice 1 (1 lines, 37 notes)
K:G
M:4/4
L:1/16
B4 |A2 G2 A2 B2 A4 B4 |G8 g8 |G2 A2 B2 c2 d4 G4 |A4 G4 z4 B4 |A2 G2 A2 B2 A4 B4 |G4 g4 B2 c2 d4 |G4 A2 B2 c4 B4 |A12 B4 |
%W: A2
% voice 1 (1 lines, 36 notes)
A2 G2 A2 B2 A4 B4 |G8 g8 |G2 A2 B2 c2 d4 G4 |A4 G4 z4 B4 |A2 G2 A2 B2 A4 B4 |G4 g4 B2 c2 d4 |G4 A2 B2 c4 B4 |A12 d4 |
%W: B1
% voice 1 (1 lines, 36 notes)
B2 A2 B2 c2 d4 d4 |d4 g4 d4 a4 |d4 b4 c'2 b2 a2 g2 |a12 B4 |A2 G2 A2 B2 A4 B4 |G4 g4 G4 g4 |G4 g4 f2 g2 a2 f2 |g12 d4 |
%W: B2
% voice 1 (1 lines, 35 notes)
B2 A2 B2 c2 d4 d4 |d4 g4 d4 a4 |d4 b4 c'2 b2 a2 g2 |a12 B4 |A2 G2 A2 B2 A4 B4 |G4 g4 G4 g4 |G4 g4 f2 g2 a2 f2 |g12 ||
